X:2500
T:Polska från Hälsingland
T:Svenska Folkdansar H3 nr 11
O:Hälsingland
B:Traditioner av Svenska Folkdansar Häfte 3, nr 12
R:Polska
Z:Nils L
M:3/4
L:1/8
K:Gm
"_E\b?"D2 ^F2 G2 | A2 (B>c) B>A | G2 B>c de | d>^c d=c BA | G2 (f>g) fd | e>c d2 z2 ::
D2 (f>g) fd | e>c dc BA | G2 (f>g) fd | e>c d2 d>B | G2 B2 Bc/B/ | A>^F G2 z2 ::
G2 g2 B2 | (B2 A2) A>^F | G2 g2 B2 | (B2 A2) A>^F | G2 A>c BA | (G>^F) G2 z2 :|
(:musicend:)
(:music:)
